src/images/profile_main.svg

<svg width="100" height="32" viewBox="0 0 100 32" fill="none" xmlns="http://www.w3.org/2000/svg">
<rect opacity="0.2" x="1" y="1" width="98" height="30" rx="15" stroke="#AAAAAA" stroke-width="2"/>
<path d="M32.9787 21L33.9134 18.3054H37.8906L38.8203 21H40.451L36.7869 10.8182H35.0121L31.348 21H32.9787ZM34.3608 17.0128L35.8622 12.6676H35.9418L37.4432 17.0128H34.3608ZM41.802 21H43.2885V17.9474H44.253L46.5549 21H48.3993L45.4064 17.0774L48.3645 13.3636H46.525L44.0044 16.5653H43.2885V13.3636H41.802V21ZM49.554 21H51.0405V17.9474H52.005L54.3068 21H56.1513L53.1584 17.0774L56.1165 13.3636H54.277L51.7564 16.5653H51.0405V13.3636H49.554V21ZM59.5282 21.169C60.791 21.169 61.502 20.5277 61.7853 19.956H61.845V21H63.2967V15.929C63.2967 13.7067 61.5467 13.2642 60.3336 13.2642C58.9515 13.2642 57.6788 13.821 57.1816 15.2131L58.5787 15.5312C58.7974 14.9893 59.3542 14.4673 60.3535 14.4673C61.313 14.4673 61.8052 14.9695 61.8052 15.8345V15.8693C61.8052 16.4112 61.2484 16.4013 59.8762 16.5604C58.4295 16.7294 56.948 17.1072 56.948 18.8423C56.948 20.3438 58.0765 21.169 59.5282 21.169ZM59.8514 19.9759C59.0112 19.9759 58.4047 19.598 58.4047 18.8622C58.4047 18.0668 59.1106 17.7834 59.9707 17.669C60.4529 17.6044 61.5964 17.4751 61.8102 17.2614V18.2457C61.8102 19.1506 61.0893 19.9759 59.8514 19.9759ZM65.9428 23.8438C67.1708 23.8438 67.9513 23.2024 68.3888 22.0192L71.5458 13.3786L69.94 13.3636L68.006 19.2898H67.9265L65.9925 13.3636H64.4016L67.1957 21.0994L67.0117 21.6065C66.6339 22.5959 66.1019 22.6854 65.2866 22.4616L64.9286 23.6797C65.1076 23.7642 65.4954 23.8438 65.9428 23.8438ZM74.4032 13.3636H72.9466V21H74.4032V17.8281H77.7093V21H79.161V13.3636H77.7093V16.5405H74.4032V13.3636ZM80.2026 14.6463H82.7033V21H84.155V14.6463H86.6458V13.3636H80.2026V14.6463Z" fill="black"/>
<path fill-rule="evenodd" clip-rule="evenodd" d="M20 13C20 14.1046 19.1046 15 18 15C16.8954 15 16 14.1046 16 13C16 11.8954 16.8954 11 18 11C19.1046 11 20 11.8954 20 13ZM22 13C22 15.2091 20.2091 17 18 17C15.7909 17 14 15.2091 14 13C14 10.7909 15.7909 9 18 9C20.2091 9 22 10.7909 22 13ZM16 18C13.7909 18 12 19.7909 12 22V23H14V22C14 20.8954 14.8954 20 16 20H20C21.1046 20 22 20.8954 22 22V23H24V22C24 19.7909 22.2091 18 20 18H16Z" fill="black"/>
</svg>

<svg width="100" height="32" fill="none" xmlns="http://www.w3.org/2000/svg"><rect opacity=".2" x="1" y="1" width="98" height="30" rx="15" stroke="#AAA" stroke-width="2"/><path d="m32.979 21 .934-2.695h3.978L38.82 21h1.63l-3.664-10.182h-1.775L31.348 21h1.63zm1.382-3.987 1.501-4.345h.08l1.501 4.345h-3.082zM41.802 21h1.486v-3.053h.965L46.555 21h1.844l-2.993-3.923 2.959-3.713h-1.84l-2.52 3.201h-.717v-3.201h-1.486V21zm7.752 0h1.486v-3.053h.965L54.307 21h1.844l-2.993-3.923 2.959-3.713h-1.84l-2.52 3.201h-.716v-3.201h-1.487V21zm9.974.169c1.263 0 1.974-.641 2.257-1.213h.06V21h1.452v-5.071c0-2.222-1.75-2.665-2.963-2.665-1.383 0-2.655.557-3.152 1.95l1.397.317c.218-.542.775-1.064 1.774-1.064.96 0 1.452.502 1.452 1.367v.035c0 .542-.557.532-1.929.691-1.447.17-2.928.547-2.928 2.282 0 1.502 1.129 2.327 2.58 2.327zm.323-1.193c-.84 0-1.446-.378-1.446-1.114 0-.795.706-1.079 1.566-1.193.482-.065 1.625-.194 1.84-.408v.985c0 .905-.722 1.73-1.96 1.73zm6.092 3.868c1.228 0 2.008-.642 2.446-1.825l3.157-8.64-1.606-.015-1.934 5.926h-.08l-1.933-5.926h-1.591l2.794 7.735-.184.508c-.378.989-.91 1.078-1.725.855l-.358 1.218c.179.084.566.164 1.014.164zm8.46-10.48h-1.456V21h1.456v-3.172h3.306V21h1.452v-7.636h-1.452v3.177h-3.306v-3.177zm5.8 1.282h2.5V21h1.452v-6.354h2.49v-1.282h-6.442v1.282z" fill="#000"/><path fill-rule="evenodd" clip-rule="evenodd" d="M20 13a2 2 0 1 1-4 0 2 2 0 0 1 4 0zm2 0a4 4 0 1 1-8 0 4 4 0 0 1 8 0zm-6 5a4 4 0 0 0-4 4v1h2v-1a2 2 0 0 1 2-2h4a2 2 0 0 1 2 2v1h2v-1a4 4 0 0 0-4-4h-4z" fill="#000"/></svg>
